svg/emoji_u1f601.svg

<svg xmlns="http://www.w3.org/2000/svg" xmlns:xlink="http://www.w3.org/1999/xlink" width="128" height="128"><defs><linearGradient id="a"><stop offset="0" stop-color="#fff"/><stop offset="1" stop-color="#fff" stop-opacity=".901"/></linearGradient><linearGradient gradientTransform="translate(0 -6.773)" xlink:href="#a" id="c" x1="95.743" y1="70.878" x2="95.743" y2="82.469" gradientUnits="userSpaceOnUse"/><linearGradient id="b"><stop offset="0" stop-color="#fff"/><stop offset="1" stop-color="#fff" stop-opacity=".787"/></linearGradient><linearGradient xlink:href="#a" id="d" gradientUnits="userSpaceOnUse" gradientTransform="translate(0 -6.773)" x1="95.743" y1="96.735" x2="95.743" y2="81.998"/></defs><path d="M63.89 9.64C1.58 9.64.1 79.5.1 93.33c0 13.83 28.56 25.03 63.79 25.03 35.24 0 63.79-11.21 63.79-25.03 0-13.83-1.47-83.69-63.79-83.69z" fill="#fcc21b"/><path d="M31.96 51.85a2.728 2.728 0 0 1-3.73.93 2.72 2.72 0 0 1-.96-3.71c.18-.31 4.6-7.62 14.37-7.62 9.78 0 14.2 7.31 14.39 7.62a2.735 2.735 0 0 1-2.36 4.11c-.92 0-1.83-.47-2.34-1.32-.13-.22-3.12-4.96-9.69-4.96-6.57-.01-9.54 4.74-9.68 4.95zM100 52.79c-.43.26-.91.38-1.37.38-.94 0-1.85-.49-2.36-1.34-.11-.2-3.08-4.94-9.66-4.94-6.69 0-9.66 4.89-9.69 4.94a2.724 2.724 0 0 1-4.69-2.77c.18-.31 4.6-7.62 14.38-7.62 9.77 0 14.18 7.31 14.36 7.62.76 1.3.32 2.97-.97 3.73z" fill="#2f2f2f"/><path d="M96.462 62.716c-3.09-2.09-6.98-.71-10.42 0-9.58 1.98-18 2.06-22.04 2.06-4.04 0-12.46-.08-22.04-2.06-3.44-.71-7.33-2.09-10.42 0-3.92 2.65-1.03 12.15 5.14 18.57 3.73 3.88 12.61 11.41 27.32 11.41s23.59-7.53 27.32-11.41c6.17-6.42 9.05-15.92 5.14-18.57z" fill="#ec6c31" stroke-width="5"/><path d="M35.354 64.106c-.956.01-1.713.21-2.41.682h-.003c-.287.194-.522.5-.64 1.379-.119.879-.002 2.216.431 3.732.118.41.26.832.42 1.262A44.377 16.047 0 0 0 64 75.696a44.377 16.047 0 0 0 30.838-4.51c.164-.438.31-.868.43-1.285.433-1.517.55-2.854.431-3.734-.118-.879-.352-1.186-.636-1.38-.93-.628-1.969-.774-3.44-.632-1.47.142-3.224.628-5.074 1.01-9.851 2.036-18.474 2.111-22.547 2.111s-12.694-.075-22.545-2.111c-1.851-.382-3.605-.868-5.076-1.01a9.628 9.628 0 0 0-1.027-.049z" fill="url(#c)" stroke-width=".78" stroke-linejoin="round"/><path style="line-height:normal;font-variant-ligatures:normal;font-variant-position:normal;font-variant-caps:normal;font-variant-numeric:normal;font-variant-alternates:normal;font-variant-east-asian:normal;font-feature-settings:normal;text-indent:0;text-align:start;text-decoration-line:none;text-decoration-style:solid;text-decoration-color:#000;text-transform:none;text-orientation:mixed;shape-padding:0;isolation:auto;mix-blend-mode:normal" d="M33.605 72.238c1.083 2.474 2.771 5.123 4.88 7.317 3.475 3.616 11.66 10.642 25.517 10.642s22.041-7.026 25.518-10.642c2.1-2.186 3.783-4.825 4.865-7.291C86.066 75.046 75.26 76.585 64 76.586c-11.273-.006-22.083-1.555-30.395-4.348z" color="#000" font-weight="400" font-family="sans-serif" white-space="normal" overflow="visible" fill="url(#d)" stroke-width=".78" stroke-linejoin="round"/></svg>

<?xml version="1.0" encoding="UTF-8" standalone="no"?>
<!DOCTYPE svg PUBLIC "-//W3C//DTD SVG 1.1//EN" "http://www.w3.org/Graphics/SVG/1.1/DTD/svg11.dtd">
<svg width="100%" height="100%" viewBox="0 0 128 128" version="1.1" xmlns="http://www.w3.org/2000/svg" xmlns:xlink="http://www.w3.org/1999/xlink" xml:space="preserve" xmlns:serif="http://www.serif.com/" style="fill-rule:evenodd;clip-rule:evenodd;stroke-linejoin:round;stroke-miterlimit:2;">
    <path d="M63.89,9.64C1.58,9.64 0.1,79.5 0.1,93.33C0.1,107.16 28.66,118.36 63.89,118.36C99.13,118.36 127.68,107.15 127.68,93.33C127.68,79.5 126.21,9.64 63.89,9.64Z" style="fill:rgb(252,194,27);fill-rule:nonzero;"/>
    <path d="M31.96,51.85C31.188,53.124 29.509,53.542 28.23,52.78C26.954,52.022 26.522,50.352 27.27,49.07C27.45,48.76 31.87,41.45 41.64,41.45C51.42,41.45 55.84,48.76 56.03,49.07C56.273,49.488 56.401,49.962 56.401,50.445C56.401,51.944 55.169,53.178 53.67,53.18C52.75,53.18 51.84,52.71 51.33,51.86C51.2,51.64 48.21,46.9 41.64,46.9C35.07,46.89 32.1,51.64 31.96,51.85ZM100,52.79C99.57,53.05 99.09,53.17 98.63,53.17C97.69,53.17 96.78,52.68 96.27,51.83C96.16,51.63 93.19,46.89 86.61,46.89C79.92,46.89 76.95,51.78 76.92,51.83C76.424,52.632 75.546,53.122 74.603,53.122C73.108,53.122 71.879,51.893 71.879,50.398C71.879,49.929 72,49.468 72.23,49.06C72.41,48.75 76.83,41.44 86.61,41.44C96.38,41.44 100.79,48.75 100.97,49.06C101.73,50.36 101.29,52.03 100,52.79Z" style="fill:rgb(47,47,47);fill-rule:nonzero;"/>
    <path d="M96.462,62.716C93.372,60.626 89.482,62.006 86.042,62.716C76.462,64.696 68.042,64.776 64.002,64.776C59.962,64.776 51.542,64.696 41.962,62.716C38.522,62.006 34.632,60.626 31.542,62.716C27.622,65.366 30.512,74.866 36.682,81.286C40.412,85.166 49.292,92.696 64.002,92.696C78.712,92.696 87.592,85.166 91.322,81.286C97.492,74.866 100.372,65.366 96.462,62.716Z" style="fill:rgb(236,108,49);fill-rule:nonzero;"/>
    <path d="M35.354,64.106C34.398,64.116 33.641,64.316 32.944,64.788L32.941,64.788C32.654,64.982 32.419,65.288 32.301,66.167C32.182,67.046 32.299,68.383 32.732,69.899C32.85,70.309 32.992,70.731 33.152,71.161C41.414,74.062 52.483,75.69 64,75.696C75.504,75.695 86.567,74.077 94.838,71.186C95.002,70.748 95.148,70.318 95.268,69.901C95.701,68.384 95.818,67.047 95.699,66.167C95.581,65.288 95.347,64.981 95.063,64.787C94.133,64.159 93.094,64.013 91.623,64.155C90.153,64.297 88.399,64.783 86.549,65.165C76.698,67.201 68.075,67.276 64.002,67.276C59.929,67.276 51.308,67.201 41.457,65.165C39.606,64.783 37.852,64.297 36.381,64.155C36.04,64.12 35.697,64.104 35.354,64.106Z" style="fill:rgb(250,250,250);fill-rule:nonzero;"/>
    <path d="M33.605,72.238C34.688,74.712 36.376,77.361 38.485,79.555C41.96,83.171 50.145,90.197 64.002,90.197C77.859,90.197 86.043,83.171 89.52,79.555C91.62,77.369 93.303,74.73 94.385,72.264C86.066,75.046 75.26,76.585 64,76.586C52.727,76.58 41.917,75.031 33.605,72.238Z" style="fill:rgb(250,250,250);fill-rule:nonzero;"/>
</svg>
